static/assets/images/networks/sei-mono.svg

<svg width="307" height="256" viewBox="0 0 307 256" fill="none" xmlns="http://www.w3.org/2000/svg">
<path d="M127.976 122.087C113.169 133.66 92.0316 132.24 78.904 118.792C58.166 97.547 26.5264 95.8484 1.05854 107.983C0.359235 114.163 0 120.447 0 126.814C0 132.248 0.26158 137.62 0.772822 142.919L5.21875 139.237C19.8575 125.496 42.7955 125.997 56.8205 140.365C80.9392 165.073 119.774 167.681 146.978 146.42L168.474 129.62C183.837 117.613 205.553 118.195 220.251 131.006L262.102 167.482L282.378 144.201L240.527 107.724C214.678 85.1946 176.488 84.1726 149.472 105.287L127.976 122.087Z" fill="black"/>
<path d="M288.364 237.22C295.339 229.43 301.586 220.974 307 211.96C281.841 191.566 244.915 191.04 218.757 212.156L215.891 214.469C201.23 226.304 179.868 224.556 167.324 210.496C143.316 183.587 102.201 180.84 74.8292 204.315L39.7207 234.426C46.4531 242.292 53.9102 249.518 61.9884 256L94.9194 227.757C109.531 215.226 131.48 216.692 144.296 231.057C167.794 257.395 207.811 260.669 235.274 238.5L238.14 236.187C253.139 224.079 274.275 224.97 288.364 237.22Z" fill="black"/>
<path d="M267.384 42.2915C277.067 33.7073 290.145 31.2144 301.914 33.7218L301.914 33.7228C294.504 22.8392 285.83 12.8867 276.104 4.07687C265.737 6.76692 255.471 11.5945 246.912 19.1815L244.157 21.6247C230.057 34.1237 208.637 33.3641 195.458 19.8981C170.235 -5.87354 129.036 -6.71983 102.777 17.9944L64.33 54.1787L85.4801 76.6683L123.927 40.4841C137.945 27.2908 159.938 27.7428 173.403 41.5004C198.091 66.7253 238.216 68.1483 264.628 44.7347L267.384 42.2915Z" fill="black"/>
</svg>

<svg xmlns="http://www.w3.org/2000/svg" fill="none" viewBox="0 0 307 256"><path fill="#000" d="M127.976 122.087c-14.807 11.573-35.944 10.153-49.072-3.295-20.738-21.245-52.378-22.944-77.845-10.809C.359 114.163 0 120.447 0 126.814c0 5.434.262 10.806.773 16.105l4.446-3.682c14.639-13.741 37.576-13.24 51.602 1.128 24.118 24.708 62.953 27.316 90.157 6.055l21.496-16.8c15.363-12.007 37.079-11.425 51.777 1.386l41.851 36.476 20.276-23.281-41.851-36.477c-25.849-22.53-64.039-23.551-91.055-2.437zM288.364 237.22A166 166 0 0 0 307 211.96c-25.159-20.394-62.085-20.92-88.243.196l-2.866 2.313c-14.661 11.835-36.023 10.087-48.567-3.973-24.008-26.909-65.123-29.656-92.495-6.181l-35.108 30.111A166.4 166.4 0 0 0 61.988 256l32.931-28.243c14.612-12.531 36.561-11.065 49.377 3.3 23.498 26.338 63.515 29.612 90.978 7.443l2.866-2.313c14.999-12.108 36.135-11.217 50.224 1.033m-20.98-194.928c9.683-8.585 22.761-11.078 34.53-8.57a166.3 166.3 0 0 0-25.81-29.645c-10.367 2.69-20.633 7.518-29.192 15.105l-2.755 2.443c-14.1 12.499-35.52 11.74-48.699-1.727-25.223-25.772-66.422-26.618-92.681-1.904L64.33 54.18l21.15 22.49 38.447-36.185c14.018-13.193 36.011-12.741 49.476 1.016 24.688 25.225 64.813 26.648 91.225 3.235z"/></svg>
